!!!!SEGMENT: Crp1002d-Missa_A_lombre_dung_buissonet-Sanctus
!!!id: Crp1002d
!!!AGN: Mass; Sanctus
!!!voices: 4
!!!OPR: Missa A l'ombre d'ung buissonet
!!!COM: Carpentras
!!!OTL: Sanctus
**kern	**kern	**kern	**kern
*part4	*part3	*part2	*part1
*staff4	*staff3	*staff2	*staff1
*I"Bassus	*I"Tenor	*I"Altus	*I"Superius
*I'B.	*I'T.	*I'A.	*I'S.
*clefGv2	*clefG2	*clefG2	*clefG2
*k[]	*k[]	*k[]	*k[]
*M2/1	*M2/1	*M2/1	*M2/1
*met(C|)	*met(C|)	*met(C|)	*met(C|)
=1	=1	=1	=1
!!section: Sanctus
!!!OMD: Sanctus
0r	0r	0r	1dd
.	.	.	1dd
=2	=2	=2	=2
0r	0r	1g	1r
.	.	1g	1dd
=3	=3	=3	=3
0r	0r	2.d	2.ff
.	.	4e	4ee
.	.	4f	2dd
.	.	4g	.
.	.	[2a	2cc
=4	=4	=4	=4
0r	1d	4a]	2b
.	.	4g	.
.	.	1g	4a
.	.	.	4g
.	1d	.	1a
.	.	2f#i	.
=5	=5	=5	=5
1G	1r	1g	0g
1G	1d	1r	.
=6	=6	=6	=6
2.D	2.f	0r	0r
4E	4e	.	.
4F	2d	.	.
4G	.	.	.
[2A	2c	.	.
=7	=7	=7	=7
4A]	2B	0r	0r
4G	.	.	.
1G	4A	.	.
.	4G	.	.
.	1A	.	.
2F#i	.	.	.
=8	=8	=8	=8
2G	1G	2r	1r
1B	.	1g	.
.	1r	.	1dd
2A	.	2f	.
=9	=9	=9	=9
1G	1d	2g	1dd
.	.	4d	.
.	.	4e	.
[1F	1d	4f	2.a
.	.	4g	.
.	.	[2a	.
.	.	.	4b
=10	=10	=10	=10
2F]	2.A	2a]	4cc
.	.	.	4dd
4E	.	4g	1ee
4D	4B	4f	.
1C	4c	2a	.
.	4d	.	.
.	[2e	[2g	2cc
=11	=11	=11	=11
2r	4e]	2g]	1dd
.	4d	.	.
2F	1d	2f	.
2G	.	1e	1ee
2A	2c#i	.	.
=12	=12	=12	=12
2.D	2d	1d	2.ff
.	1f	.	.
4E	.	.	4ee
4F	.	1r	2dd
4G	.	.	.
[2A	2e	.	2cc
=13	=13	=13	=13
4A]	1d	0r	2b
4G	.	.	.
1G	.	.	4a
.	.	.	4g
.	1r	.	1a
2F#i	.	.	.
=14	=14	=14	=14
0G	1r	1.b-X	1g
.	[1B-X	.	[1dd
.	.	2a	.
=15	=15	=15	=15
0r	2B-]	1.g	1dd]
.	2A	.	.
.	1G	.	1dd
.	.	4f	.
.	.	4e	.
=16	=16	=16	=16
1r	1r	2.d	1.ff
.	.	4e	.
[1B-i	[1d	2f	.
.	.	[2g	2ee
=17	=17	=17	=17
2B-]	2d]	2g]	1.dd
2A	2c	1f	.
1G	1B-X	.	.
.	.	2e	4cc
.	.	.	4b
=18	=18	=18	=18
0F	1r	1f	2.a
.	.	.	4b
.	[1f	1a	2cc
.	.	.	[2dd
=19	=19	=19	=19
0r	2f]	2a	4dd]
.	.	.	4cc
.	2e	2g	1cc
.	2.d	2.f	.
.	.	.	2b
.	8cL	8eL	.
.	8BJ	8dJ	.
=20	=20	=20	=20
1r	2.A	1e	1cc
.	4B	.	.
[1F	4c	2r	1r
.	4A	.	.
.	[2d	[2a	.
=21	=21	=21	=21
2F]	4d]	2a]	1dd
.	4c	.	.
2E	1c	2g	.
1D	.	1f	2dd
.	2B	.	2dd
=22	=22	=22	=22
1C	1c	2e	1ee
.	.	1a	.
1r	2r	.	1ff
.	[2d	[2f	.
=23	=23	=23	=23
0r	2d]	4f]	2dd
.	.	4g	.
.	2d	2a	2.ff
.	1d	2d	.
.	.	.	4ee
.	.	[2a	2dd
=24	=24	=24	=24
1r	1e	2a]	2cc
.	.	2g	2b
[1D	1f	2a	1a
.	.	4d	.
.	.	4e	.
=25	=25	=25	=25
2D]	2d	4f	2r
.	.	4g	.
2D	2.f	2a	2dd
1D	.	2d	1ff
.	4e	.	.
.	2d	[2a	.
=26	=26	=26	=26
1E	2c	2a]	1ee
.	2B	2g	.
2F	1A	1a	2cc
[2D	.	.	[2dd
=27	=27	=27	=27
4D]	1f	2d	4dd]
4E	.	.	4cc
4F	.	2.a	4a
4G	.	.	4b
2A	2e	.	2cc
.	.	4g	.
2D	[2d	[2f	[2b
=28	=28	=28	=28
1F	4d]	4f]	4b]
.	4c	4e	4a
.	2A	4c	1a
.	.	4d	.
1E	1B	1e	.
.	.	.	2g#i
=29	=29	=29	=29
2r	2A	0e	2.a
2.A	2.c	.	.
.	.	.	4b
.	.	.	4cc
4A	4c	.	4dd
2A	2c	.	4ee
.	.	.	4cc
=30	=30	=30	=30
2G	2B	2r	4dd
.	.	.	4ee
2F	2A	1a	1ff
2B-i	2d	.	.
2B-i	2d	2g	2ee
=31	=31	=31	=31
0A	2e	1a	2.cc
.	2.e	.	.
.	.	.	4dd
.	.	1cc	1ee
.	4e	.	.
.	2e	.	.
=32	=32	=32	=32
2r	2d	2b	0r
2.A	2c	2.a	.
.	2f	.	.
4A	.	4b	.
2A	2f	4cc	.
.	.	4a	.
=33	=33	=33	=33
2G	2e	4b	0r
.	.	4cc	.
2F	1f	1a	.
2B-i	.	.	.
2B-i	4e	2g	.
.	4d	.	.
=34	=34	=34	=34
0A	2.c	2a	2r
.	.	2.A	1ee
.	4d	.	.
.	2e	.	.
.	.	4B	.
.	[2A	4c	2ee
.	.	4d	.
=35	=35	=35	=35
2r	4A]	2.e	2.cc
.	4B	.	.
2.E	4c	.	.
.	4d	4f	4b
.	4e	2g	4cc
4E	4f	.	4dd
2E	4g	2c	2ee
.	4e	.	.
=36	=36	=36	=36
2D	2f	2d	2a
2C	1e	2e	1cc
2F	.	1A	.
2F	2d	.	4b
.	.	.	4a
=37	=37	=37	=37
2E	1e	2B	2g
2.A	.	4A	2.cc
.	.	4B	.
.	2r	4c	.
4A	.	4d	4cc
2A	2c	4e	2cc
.	.	4f	.
=38	=38	=38	=38
2G	2d	2g	2b
2F	1e	1a	2a
2B-i	.	.	2dd
2B-i	4e	2g	2dd
.	4d	.	.
=39	=39	=39	=39
0A	2f	0a	2cc
.	2e	.	2.ee
.	1c	.	.
.	.	.	4ee
.	.	.	2ee
=40	=40	=40	=40
0r	2d	2r	2dd
.	2.A	2.a	2cc
.	.	.	2ff
.	4G	4a	.
.	4A	2a	2ff
.	4B	.	.
=41	=41	=41	=41
0r	2c	2g	2ee
.	1d	2f	1ff
.	.	2b-i	.
.	2G	2b-i	4ee
.	.	.	4dd
=42	=42	=42	=42
2r	2A	1a	2cc
2.A	2.c	.	4a
.	.	.	4b
.	.	2.e	4cc
4A	4B	.	4dd
2A	4c	.	4ee
.	4A	4f	4cc
=43	=43	=43	=43
2G	2B	2g	4dd
.	.	.	4ee
2F	2A	2.a	1ff
2B-i	1d	.	.
.	.	4f	.
2B-i	.	2g	4ee
.	.	.	4dd
=44	=44	=44	=44
0A	2e	0a	2cc
.	2f	.	1dd
.	1e	.	.
.	.	.	2cc#i
=45	=45	=45	=45
0Dl	0dl	0al	0ddl
=46||	=46||	=46||	=46||
*M2/1	*M2/1	*M2/1	*M2/1
*met(C|)	*met(C|)	*met(C|)	*met(C|)
!!section: Pleni sunt celi
!!!OMD: Pleni sunt celi
0r	1.e	0r	0r
.	2e	.	.
=47	=47	=47	=47
0r	1c	0r	0r
.	2.d	.	.
.	4e	.	.
=48	=48	=48	=48
1.A	2f	0r	0r
.	2.e	.	.
.	4d	.	.
2A	4c	.	.
.	4B	.	.
=49	=49	=49	=49
1F	1A	0r	0r
2.G	2r	.	.
.	[2d	.	.
4A	.	.	.
=50	=50	=50	=50
2B-i	2d]	0r	0r
2.A	4c	.	.
.	4B	.	.
.	2c	.	.
4G	.	.	.
4F	[2d	.	.
4E	.	.	.
=51	=51	=51	=51
1D	4d]	0r	0r
.	4e	.	.
.	1f	.	.
2r	.	.	.
[2G	4e	.	.
.	4d	.	.
=52	=52	=52	=52
2G]	1e	0r	0r
4F	.	.	.
4E	.	.	.
2F	1d	.	.
[2G	.	.	.
=53	=53	=53	=53
4G]	2r	0r	0r
4A	.	.	.
1B-i	1d	.	.
4A	[2g	.	.
4G	.	.	.
=54	=54	=54	=54
1A	2g]	0r	0r
.	2f	.	.
2r	2.g	.	.
[2G	.	.	.
.	4f	.	.
=55	=55	=55	=55
2G]	2e	0r	0r
1c	4d	.	.
.	4c	.	.
.	1d	.	.
2B	.	.	.
=56	=56	=56	=56
2.c	2r	0r	0r
.	1c	.	.
4B	.	.	.
2A	.	.	.
4G	[2f	.	.
4F	.	.	.
=57	=57	=57	=57
1G	2f]	0r	0r
.	2e	.	.
2r	[1f	.	.
[2F	.	.	.
=58	=58	=58	=58
2F]	0f_	0r	0r
1B-i	.	.	.
2A	.	.	.
=59	=59	=59	=59
2B-i	1f]	0r	0r
1G	.	.	.
.	[1e	.	.
2G	.	.	.
=60	=60	=60	=60
2A	1e]	0r	0r
1A	.	.	.
.	[1d	.	.
2F	.	.	.
=61	=61	=61	=61
2G	1d]	0r	0r
1D	.	.	.
.	1A	.	.
[2F	.	.	.
=62	=62	=62	=62
2F]	1c	0r	0r
2E	.	.	.
1G	2B	.	.
.	[2d	.	.
=63	=63	=63	=63
2F	2d]	0r	0r
1A	2c	.	.
.	1e	.	.
2G	.	.	.
=64	=64	=64	=64
1B-X	2d	0r	0r
.	2.f	.	.
2A	.	.	.
.	4e	.	.
[2d	4f	.	.
.	4d	.	.
=65	=65	=65	=65
4d]	2.f	0r	0r
4c	.	.	.
4d	.	.	.
4B	4g	.	.
1c#X	1e	.	.
=66	=66	=66	=66
2r	1d	0r	0r
2.d	.	.	.
.	2r	.	.
4c	.	.	.
4d	2f	.	.
4B	.	.	.
=67	=67	=67	=67
2c	2e	0r	0r
2d	2.f	.	.
2A	.	.	.
.	4e	.	.
2d	4f	.	.
.	4d	.	.
=68	=68	=68	=68
2.c	4e	0r	0r
.	4f	.	.
.	2.g	.	.
8BL	.	.	.
8AJ	.	.	.
1B	.	.	.
.	4f	.	.
.	8gL	.	.
.	8f	.	.
.	8e	.	.
.	8dJ	.	.
=69	=69	=69	=69
1A	2.c	0r	0r
.	4d	.	.
2G	4e	.	.
.	4d	.	.
[2A	[2f	.	.
=70	=70	=70	=70
4A]	4f]	0r	0r
4G	4e	.	.
4F	1e	.	.
4E	.	.	.
1F	.	.	.
.	2d	.	.
=71	=71	=71	=71
2.E	2.g	0r	0r
4F	4f	.	.
4G	2e	.	.
4A	.	.	.
[2B	2d	.	.
=72	=72	=72	=72
4B]	2c	0r	0r
4A	.	.	.
1A	4B	.	.
.	4A	.	.
.	1B	.	.
2G	.	.	.
=73	=73	=73	=73
2.c	2.A	0r	0r
4B	4B	.	.
2A	4c	.	.
.	4d	.	.
2G	[2e	.	.
=74	=74	=74	=74
2F	4e]	0r	0r
.	4d	.	.
4E	1d	.	.
4D	.	.	.
1E	.	.	.
.	2c#i	.	.
=75	=75	=75	=75
2r	1d	0r	0r
1D	.	.	.
.	2r	.	.
2D	[2A	.	.
=76	=76	=76	=76
2.F	2A]	0r	0r
.	2A	.	.
4G	.	.	.
4A	2.c	.	.
4G	.	.	.
4A	.	.	.
4B	4d	.	.
=77	=77	=77	=77
2.c	4e	0r	0r
.	4d	.	.
.	4e	.	.
4B	4f	.	.
4G	2.g	.	.
4A	.	.	.
[2B-X	.	.	.
.	4f	.	.
=78	=78	=78	=78
2B-]	4d	0r	0r
.	4e	.	.
2A	2f	.	.
2G	2e	.	.
2B-i	2d	.	.
=79	=79	=79	=79
1A	2f	0r	0r
.	2.e	.	.
2G	.	.	.
.	4d	.	.
[2A	4c	.	.
.	4B	.	.
=80	=80	=80	=80
4A]	4A	0r	0r
4G	4B	.	.
4E	4c	.	.
4F	4d	.	.
2G	4e	.	.
.	4d	.	.
2A	2f	.	.
=81	=81	=81	=81
4G	4e	0r	0r
4F	4d	.	.
4E	1d	.	.
4D	.	.	.
1E	.	.	.
.	2c#i	.	.
=82	=82	=82	=82
0Dl	0dl	0r	0r
=83||	=83||	=83||	=83||
*M2/1	*M2/1	*M2/1	*M2/1
*met(C|)	*met(C|)	*met(C|)	*met(C|)
!!section: Osanna
!!!OMD: Osanna
[0A	0e	[0a	[0cc#X
=84	=84	=84	=84
0A]	1f	0a]	0cc#]
.	1e	.	.
=85	=85	=85	=85
0B-X	0d	1g	[0dd
.	.	1f	.
=86	=86	=86	=86
0G	1.g	0b-X	0dd]
.	2f	.	.
=87	=87	=87	=87
0A	2.e	0a	0cc
.	4d	.	.
.	1e	.	.
=88	=88	=88	=88
2.B-i	0d	1f	[0dd
4A	.	.	.
2G	.	1g	.
4F	.	.	.
4E	.	.	.
=89	=89	=89	=89
0D	1.f	0a	0dd]
.	4e	.	.
.	4d	.	.
=90	=90	=90	=90
1.F	1c	[0f	[0a
.	1d	.	.
2E	.	.	.
=91	=91	=91	=91
2.D	0d	0f]	1a]
4C	.	.	.
1D	.	.	1b
=92	=92	=92	=92
0C	0e	0g	0cc
=93	=93	=93	=93
1.F	1c	1f	[0a
.	[1f	1d	.
2G	.	.	.
=94	=94	=94	=94
1A	2f]	1c	0a]
.	2e	.	.
1F	2d	[1f	.
.	2c	.	.
=95	=95	=95	=95
0G	0B-X	2f]	0b-X
.	.	4e	.
.	.	4d	.
.	.	2f	.
.	.	2e	.
=96	=96	=96	=96
1.F	1c	1.f	1a
.	[1A	.	1cc
2E	.	2g	.
=97	=97	=97	=97
0D	1A]	[0a	1dd
.	[1d	.	[1ff
=98	=98	=98	=98
0A	2d]	0a]	2ff]
.	4c	.	4ee
.	4B	.	4dd
.	1c	.	2ee
.	.	.	2ff
=99	=99	=99	=99
0G	0d	0b-X	1gg
.	.	.	2dd
.	.	.	[2gg
=100	=100	=100	=100
0B-X	0d	0g	2gg]
.	.	.	2ff
.	.	.	2ee
.	.	.	2dd
=101	=101	=101	=101
1A	1e	0a	1cc#X
1F	2f	.	1dd
.	[2d	.	.
=102	=102	=102	=102
1G	2d]	1g	1b
.	4c#i	.	.
.	4B	.	.
1A	1c#i	1e	[1a
=103	=103	=103	=103
0D	[0dl	0f#X	1a]
.	.	.	1a
=104	=104	=104	=104
0G	0d_	0g	1b-X
.	.	.	1b-i
=105	=105	=105	=105
0Dl	0d]	0f#il	0al
=106||	=106||	=106||	=106||
*M2/1	*M2/1	*M2/1	*M2/1
*met(C|)	*met(C|)	*met(C|)	*met(C|)
!!section: Benedictus
!!!OMD: Benedictus
1d	1r	0r	0r
1d	1a	.	.
=107	=107	=107	=107
2.A	1a	0r	0r
4B	.	.	.
4c	2e	.	.
4d	.	.	.
[2e	[2g	.	.
=108	=108	=108	=108
4e]	4g]	0r	0r
4d	4f	.	.
1d	4f	.	.
.	8eL	.	.
.	8dJ	.	.
.	1e	.	.
2c#i	.	.	.
=109	=109	=109	=109
1d	2r	0r	1dd
.	2.d	.	.
1r	.	.	1dd
.	4e	.	.
.	4f	.	.
.	4d	.	.
=110	=110	=110	=110
2r	2.f	0r	2.a
2.A	.	.	.
.	4g	.	4b
.	[1a	.	4cc
4B	.	.	4dd
4c	.	.	[2ee
4A	.	.	.
=111	=111	=111	=111
2c	2a]	0r	4ee]
.	.	.	4dd
2d	4g	.	1dd
.	4f	.	.
1e	2.g	.	.
.	.	.	2cc#X
.	4a	.	.
=112	=112	=112	=112
1d	2b-i	0r	0dd
.	1a	.	.
2.D	.	.	.
.	[2d	.	.
4E	.	.	.
=113	=113	=113	=113
2F	4d]	0r	2r
.	4e	.	.
1D	4f	.	2.a
.	4d	.	.
.	2.f	.	.
.	.	.	4b
[2A	.	.	4cc
.	4g	.	4a
=114	=114	=114	=114
4A]	1.a	0r	2.cc
4B	.	.	.
2c	.	.	.
.	.	.	4dd
2A	.	.	[1ee
[2c	4g	.	.
.	4f	.	.
=115	=115	=115	=115
2c]	2.g	0r	2ee]
4B	.	.	4dd
4A	4a	.	4cc
1G	1b-i	.	2.dd
.	.	.	4ee
=116	=116	=116	=116
2r	1a	0r	1ff
2.A	.	.	.
.	2r	.	1ee
4B	.	.	.
4c	2a	.	.
4A	.	.	.
=117	=117	=117	=117
2B	2g	0r	2r
2c	2e	.	2.a
4F	1f	.	.
4G	.	.	4b
4A	.	.	4cc
4F	.	.	4a
=118	=118	=118	=118
2G	1e	0r	2b
2A	.	.	2cc
1D	2d	.	2f
.	[2f	.	[2a
=119	=119	=119	=119
2r	4f]	0r	4a]
.	4e	.	4g
2A	2c	.	4e
.	.	.	4f
2G	2d	.	1g
2E	2e	.	.
=120	=120	=120	=120
1F	2A	0r	2r
.	1d	.	2a
1E	.	.	2g
.	2c#i	.	2e
=121	=121	=121	=121
2D	1d	0r	1f
2d	.	.	.
2c	1r	.	2e
2A	.	.	[2a
=122	=122	=122	=122
2.B-i	1r	0r	4a]
.	.	.	4f
.	.	.	2g
8AL	.	.	.
8GJ	.	.	.
2F	2r	.	2a
2f	2a	.	[2cc
=123	=123	=123	=123
2e	2g	0r	4cc]
.	.	.	4dd
2c	2e	.	1ee
1d	2.f	.	.
.	.	.	2dd
.	8eL	.	.
.	8dJ	.	.
=124	=124	=124	=124
0r	2c	0r	1ee
.	2.g	.	.
.	.	.	2dd
.	4f	.	.
.	2d	.	2b
=125	=125	=125	=125
2r	2e	0r	1cc
2A	2.f	.	.
2G	.	.	2b
.	4e	.	.
2E	[2e	.	2g
=126	=126	=126	=126
1F	2e]	0r	1a
.	2d	.	.
2E	1e	.	2g
[2A	.	.	2e
=127	=127	=127	=127
4A]	1a	0r	1f
4G	.	.	.
4A	.	.	.
4B	.	.	.
2c	2g	.	2e
2A	2f	.	[2a
=128	=128	=128	=128
2.c	2.e	0r	4a]
.	.	.	4g
.	.	.	4a
4d	4d	.	4b
4e	2c	.	2cc
4c	.	.	.
[2f	2d	.	2a
=129	=129	=129	=129
4f]	1A	0r	2.cc
4e	.	.	.
1e	.	.	.
.	.	.	4dd
.	2r	.	4ee
.	.	.	4cc
2f	2a	.	[2ff
=130	=130	=130	=130
2e	2g	0r	4ff]
.	.	.	4ee
2A	2e	.	1ee
2A	1f	.	.
2B	.	.	2dd
=131	=131	=131	=131
2.c	2e	0r	2.ee
.	4c	.	.
4B	4d	.	4dd
2A	4e	.	2cc
.	4f	.	.
2G	4g	.	2b
.	4e	.	.
=132	=132	=132	=132
1A	4f	0r	2a
.	4e	.	.
.	1a	.	2cc
1E	.	.	1b
.	2g#i	.	.
=133	=133	=133	=133
2r	2.a	0r	1a
2.A	.	.	.
.	4g	.	.
.	2f	.	1r
4B	.	.	.
4c	2e	.	.
4A	.	.	.
=134	=134	=134	=134
4B	2d	0r	0r
4c	.	.	.
1d	2f	.	.
.	1e	.	.
2c#i	.	.	.
=135	=135	=135	=135
1d	2r	0r	2.dd
.	2.d	.	.
.	.	.	4dd
1D	.	.	2b
.	4e	.	.
.	4f	.	2a
.	4d	.	.
=136	=136	=136	=136
0r	4e	0r	2g
.	4f	.	.
.	1g	.	2b
.	.	.	1a
.	2f#i	.	.
=137	=137	=137	=137
2r	2.g	0r	1g
2.G	.	.	.
.	4f	.	.
.	2e	.	1r
4A	.	.	.
4B	2d	.	.
4G	.	.	.
=138	=138	=138	=138
4A	2c	0r	0r
4B	.	.	.
1c	2e	.	.
.	1d	.	.
2B	.	.	.
=139	=139	=139	=139
2c	2r	0r	2.cc
2.A	2.c	.	.
.	.	.	4b
.	.	.	2a
4B	4d	.	.
2c	4e	.	2g
.	4c	.	.
=140	=140	=140	=140
1F	4d	0r	2f
.	4e	.	.
.	1f	.	2a
1C	.	.	1g
.	2e	.	.
=141	=141	=141	=141
2r	1f	0r	1f
2.D	.	.	.
.	2.a	.	1r
4E	.	.	.
4F	.	.	.
4G	4g	.	.
=142	=142	=142	=142
4A	2f	0r	0r
4B	.	.	.
4c	2e	.	.
4A	.	.	.
4B	2d	.	.
4c	.	.	.
[2d	2f	.	.
=143	=143	=143	=143
2d]	1e	0r	1r
2c#i	.	.	.
1d	2.d	.	2r
.	.	.	[2d
.	4e	.	.
=144	=144	=144	=144
1D	4f	0r	4d]
.	4g	.	4e
.	2.a	.	4f
.	.	.	4g
1r	.	.	4a
.	4g	.	4b
.	4e	.	4cc
.	4f	.	4a
=145	=145	=145	=145
0r	4g	0r	4b
.	4f	.	4cc
.	4f	.	1dd
.	8eL	.	.
.	8dJ	.	.
.	1e	.	.
.	.	.	2cc#i
=146	=146	=146	=146
2r	2d	0r	2dd
2d	1a	.	2ff
2c	.	.	2ee
[2d	[2b-X	.	2dd
=147	=147	=147	=147
4d]	4b-]	0r	2.ff
4c	4a	.	.
4d	1a	.	.
4c	.	.	8eeL
.	.	.	8ddJ
4A	.	.	4cc
4B	.	.	4dd
4c	4g	.	4ee
4d	4f	.	4ff
=148	=148	=148	=148
2c	4g	0r	2ee
.	4a	.	.
2d	2f	.	2a
2G	2e	.	2r
2B-X	2d	.	2dd
=149	=149	=149	=149
2A	2r	0r	2cc
2G	2.g	.	2b
2.B-i	.	.	2.dd
.	4f	.	.
.	[2f	.	.
8AL	.	.	8ccL
8GJ	.	.	8bJ
=150	=150	=150	=150
4F	2f]	0r	4a
4G	.	.	4b
4A	4e	.	4cc
4B-i	4d	.	4dd
2A	2e	.	2cc
2D	[2a	.	[2f
=151	=151	=151	=151
1d	4a]	0r	4f]
.	4g	.	4g
.	4f	.	4a
.	8eL	.	4b
.	8dJ	.	.
2.A	2e	.	2cc
.	2f	.	[2a
4B	.	.	.
=152	=152	=152	=152
2c	2e	0r	4a]
.	.	.	4b
2A	1a	.	4cc
.	.	.	4dd
2.c	.	.	4ee
.	.	.	4ff
.	2g	.	[2gg
8BL	.	.	.
8AJ	.	.	.
=153	=153	=153	=153
1G	1b-X	0r	4gg]
.	.	.	4ff
.	.	.	4ee
.	.	.	4dd
2r	2.a	.	2ff
2A	.	.	[2ee
.	4g	.	.
=154	=154	=154	=154
2B-X	2f	0r	4ee]
.	.	.	4dd
2G	2g	.	1dd
1A	1e	.	.
.	.	.	2cc#i
=155	=155	=155	=155
0Dl	0dl	0r	0ddl
==	==	==	==
*-	*-	*-	*-
!!!system-decoration: s1,s2,s3,s4
!!!RDF**kern: i = editorial accidental
!!!RDF**kern: l = terminal long
!!!ENC: Max Blistain
!!!END: 2025/12/13
!!!EED: Benjamin Ory
!!!EEV: 2026/02/13
!!!YEC: Copyright 2026 Benjamin Ory, All Rights Reserved
!!!ONB: Translated from MusicXML on 2026/02/13
